mobile/24/svg/permissions-24.svg

<svg width="24" height="24" viewBox="0 0 24 24" fill="none" xmlns="http://www.w3.org/2000/svg">
<path fill-rule="evenodd" clip-rule="evenodd" d="M2 6.5C2 5.11975 3.11975 4 4.5 4H19.5C20.8802 4 22 5.11975 22 6.5V16.5C22 17.8802 20.8802 19 19.5 19H4.5C3.11975 19 2 17.8802 2 16.5V6.5ZM19.5 17.25H12V5.75H19.5C19.9138 5.75 20.25 6.08625 20.25 6.5V16.5C20.25 16.9137 19.9138 17.25 19.5 17.25ZM6.90844 13.5612L10.4997 9.96881L9.43885 8.90833L6.37794 11.9702L4.56103 10.1533L3.50037 11.214L5.8477 13.5613C5.98836 13.702 6.17915 13.781 6.37809 13.781C6.57702 13.781 6.7678 13.7019 6.90844 13.5612Z" fill="black"/>
<path d="M13.1246 9.56055L14.1853 8.4999L16.1249 10.4395L18.0637 8.5006L19.1244 9.56125L17.1855 11.5001L19.1244 13.439L18.0637 14.4996L16.1249 12.5608L14.1853 14.5003L13.1246 13.4397L15.0642 11.5001L13.1246 9.56055Z" fill="black"/>
</svg>

<svg width="24" height="24" fill="none" xmlns="http://www.w3.org/2000/svg"><path fill-rule="evenodd" clip-rule="evenodd" d="M2 6.5A2.5 2.5 0 0 1 4.5 4h15A2.5 2.5 0 0 1 22 6.5v10a2.5 2.5 0 0 1-2.5 2.5h-15A2.5 2.5 0 0 1 2 16.5v-10zm17.5 10.75H12V5.75h7.5a.75.75 0 0 1 .75.75v10a.75.75 0 0 1-.75.75zM6.908 13.561 10.5 9.97l-1.061-1.06-3.061 3.061-1.817-1.817-1.06 1.061 2.347 2.347a.75.75 0 0 0 1.06 0z" fill="#000"/><path d="m13.125 9.56 1.06-1.06 1.94 1.94 1.939-1.94 1.06 1.061-1.938 1.94 1.938 1.938-1.06 1.06-1.94-1.938-1.939 1.94-1.06-1.061 1.94-1.94-1.94-1.94z" fill="#000"/></svg>
